public/library/light-account-icon-light.svg

<svg width="202" height="200" viewBox="0 0 202 200" fill="none" xmlns="http://www.w3.org/2000/svg">
<path d="M200.416 100C200.416 155.228 155.644 200 100.416 200C45.1871 200 0.415527 155.228 0.415527 100C0.415527 44.7715 45.1871 0 100.416 0C155.644 0 200.416 44.7715 200.416 100Z" fill="url(#paint0_linear_2309_6)"/>
<circle cx="133.279" cy="128.045" r="29.8454" fill="white" fill-opacity="0.4"/>
<path fill-rule="evenodd" clip-rule="evenodd" d="M121.24 42.1092H57.0553C55.6367 42.1092 54.2762 42.6728 53.2732 43.6758C52.2701 44.6789 51.7065 46.0394 51.7065 47.458V143.735C51.7065 145.154 52.2701 146.514 53.2732 147.518C54.2762 148.521 55.6367 149.084 57.0553 149.084H101.209C96.4879 142.31 94.1383 134.165 94.5263 125.917C94.9143 117.669 98.0181 109.78 103.354 103.479C108.691 97.1777 115.961 92.8173 124.032 91.0764C132.104 89.3355 140.525 90.3116 147.984 93.853V68.853L121.24 42.1092ZM65.4483 65.304C65.4483 63.846 66.6303 62.6641 68.0883 62.6641H103.879C105.337 62.6641 106.519 63.846 106.519 65.304C106.519 66.762 105.337 67.944 103.879 67.944H68.0883C66.6303 67.944 65.4483 66.762 65.4483 65.304ZM68.0883 77.0809C66.6303 77.0809 65.4483 78.2628 65.4483 79.7209C65.4483 81.1789 66.6303 82.3608 68.0883 82.3608H90.4542C91.9123 82.3608 93.0942 81.1789 93.0942 79.7209C93.0942 78.2628 91.9123 77.0809 90.4542 77.0809H68.0883Z" fill="white"/>
<path d="M121.24 42.1092L123.538 39.8116L122.586 38.8599H121.24V42.1092ZM53.2732 147.518L50.9755 149.815L50.9755 149.815L53.2732 147.518ZM101.209 149.084V152.334H107.434L103.875 147.226L101.209 149.084ZM94.5263 125.917L97.7721 126.069L94.5263 125.917ZM103.354 103.479L100.875 101.379V101.379L103.354 103.479ZM147.984 93.853L146.59 96.7883L151.233 98.9926V93.853H147.984ZM147.984 68.853H151.233V67.5071L150.282 66.5553L147.984 68.853ZM57.0553 45.3586H121.24V38.8599H57.0553V45.3586ZM55.5708 45.9735C55.9645 45.5798 56.4985 45.3586 57.0553 45.3586V38.8599C54.7749 38.8599 52.588 39.7658 50.9755 41.3782L55.5708 45.9735ZM54.9559 47.458C54.9559 46.9012 55.1771 46.3672 55.5708 45.9735L50.9755 41.3782C49.3631 42.9907 48.4572 45.1776 48.4572 47.458H54.9559ZM54.9559 143.735V47.458H48.4572V143.735H54.9559ZM55.5708 145.22C55.1771 144.826 54.9559 144.292 54.9559 143.735H48.4572C48.4572 146.016 49.3631 148.203 50.9755 149.815L55.5708 145.22ZM57.0553 145.835C56.4985 145.835 55.9645 145.614 55.5708 145.22L50.9755 149.815C52.588 151.428 54.7749 152.334 57.0553 152.334V145.835ZM101.209 145.835H57.0553V152.334H101.209V145.835ZM91.2806 125.764C90.8589 134.728 93.4123 143.58 98.5434 150.942L103.875 147.226C99.5634 141.04 97.4178 133.602 97.7721 126.069L91.2806 125.764ZM100.875 101.379C95.0753 108.227 91.7023 116.8 91.2806 125.764L97.7721 126.069C98.1264 118.537 100.961 111.333 105.834 105.579L100.875 101.379ZM123.347 87.9001C114.575 89.7921 106.674 94.5309 100.875 101.379L105.834 105.579C110.707 99.8245 117.346 95.8425 124.717 94.2527L123.347 87.9001ZM149.378 90.9177C141.271 87.069 132.119 86.0081 123.347 87.9001L124.717 94.2527C132.089 92.6628 139.778 93.5543 146.59 96.7883L149.378 90.9177ZM144.735 68.853V93.853H151.233V68.853H144.735ZM118.943 44.4069L145.686 71.1506L150.282 66.5553L123.538 39.8116L118.943 44.4069ZM68.0883 59.4147C64.8357 59.4147 62.199 62.0515 62.199 65.304H68.6977C68.6977 65.6406 68.4249 65.9134 68.0883 65.9134V59.4147ZM103.879 59.4147H68.0883V65.9134H103.879V59.4147ZM109.768 65.304C109.768 62.0515 107.131 59.4147 103.879 59.4147V65.9134C103.542 65.9134 103.269 65.6406 103.269 65.304H109.768ZM103.879 71.1933C107.131 71.1933 109.768 68.5566 109.768 65.304H103.269C103.269 64.9675 103.542 64.6947 103.879 64.6947V71.1933ZM68.0883 71.1933H103.879V64.6947H68.0883V71.1933ZM62.199 65.304C62.199 68.5566 64.8357 71.1933 68.0883 71.1933V64.6947C68.4249 64.6947 68.6977 64.9675 68.6977 65.304H62.199ZM68.6977 79.7209C68.6977 80.0574 68.4249 80.3302 68.0883 80.3302V73.8316C64.8357 73.8316 62.199 76.4683 62.199 79.7209H68.6977ZM68.0883 79.1115C68.4249 79.1115 68.6977 79.3843 68.6977 79.7209H62.199C62.199 82.9734 64.8357 85.6102 68.0883 85.6102V79.1115ZM90.4542 79.1115H68.0883V85.6102H90.4542V79.1115ZM89.8449 79.7209C89.8449 79.3843 90.1177 79.1115 90.4542 79.1115V85.6102C93.7068 85.6102 96.3436 82.9734 96.3436 79.7209H89.8449ZM90.4542 80.3302C90.1177 80.3302 89.8449 80.0574 89.8449 79.7209H96.3436C96.3436 76.4683 93.7068 73.8316 90.4542 73.8316V80.3302ZM68.0883 80.3302H90.4542V73.8316H68.0883V80.3302Z" fill="url(#paint1_linear_2309_6)" fill-opacity="0.3"/>
<path d="M125.779 119.712C125.779 123.847 129.144 127.212 133.279 127.212C137.414 127.212 140.779 123.847 140.779 119.712C140.779 115.577 137.414 112.212 133.279 112.212C129.144 112.212 125.779 115.577 125.779 119.712ZM146.612 143.879H148.279V142.212C148.279 135.78 143.044 130.545 136.612 130.545H129.946C123.512 130.545 118.279 135.78 118.279 142.212V143.879H146.612Z" fill="white"/>
<defs>
<linearGradient id="paint0_linear_2309_6" x1="92.5718" y1="-154.722" x2="-10.6735" y2="202.339" gradientUnits="userSpaceOnUse">
<stop offset="0.233253" stop-color="#FF9C27"/>
<stop offset="1" stop-color="#FD48CE"/>
</linearGradient>
<linearGradient id="paint1_linear_2309_6" x1="99.8453" y1="42.1092" x2="99.8453" y2="149.084" gradientUnits="userSpaceOnUse">
<stop stop-color="white"/>
<stop offset="1" stop-color="white" stop-opacity="0.55"/>
</linearGradient>
</defs>
</svg>

<svg xmlns="http://www.w3.org/2000/svg" width="202" height="200" fill="none" viewBox="0 0 202 200"><path fill="url(#a)" d="M200.416 100c0 55.228-44.772 100-100 100s-100-44.772-100-100 44.771-100 100-100 100 44.772 100 100"/><circle cx="133.279" cy="128.045" r="29.845" fill="#fff" fill-opacity=".4"/><path fill="#fff" fill-rule="evenodd" d="M121.24 42.11H57.055a5.35 5.35 0 0 0-5.349 5.348v96.277a5.35 5.35 0 0 0 5.35 5.349h44.153a37.44 37.44 0 0 1 46.775-55.231v-25zM65.448 65.303a2.64 2.64 0 0 1 2.64-2.64h35.791a2.64 2.64 0 1 1 0 5.28h-35.79a2.64 2.64 0 0 1-2.64-2.64m2.64 11.777a2.64 2.64 0 1 0 0 5.28h22.366a2.64 2.64 0 1 0 0-5.28z" clip-rule="evenodd"/><path fill="url(#b)" fill-opacity=".3" d="m121.24 42.11 2.298-2.298-.952-.952h-1.346zM53.273 147.517l-2.298 2.297zm47.936 1.566v3.25h6.225l-3.559-5.108zm-6.683-23.167 3.246.152zm8.828-22.438-2.479-2.1zm44.63-9.626-1.394 2.935 4.643 2.205v-5.14zm0-25h3.249v-1.346l-.951-.952zM57.055 45.359h64.185v-6.5H57.055zm-1.484.614a2.1 2.1 0 0 1 1.484-.614v-6.5c-2.28 0-4.467.907-6.08 2.52zm-.615 1.485a2.1 2.1 0 0 1 .615-1.484l-4.596-4.596a8.6 8.6 0 0 0-2.518 6.08zm0 96.277V47.458h-6.499v96.277zm.615 1.485a2.1 2.1 0 0 1-.615-1.485h-6.499c0 2.281.906 4.468 2.518 6.08zm1.484.615c-.556 0-1.09-.221-1.484-.615l-4.596 4.595a8.6 8.6 0 0 0 6.08 2.519zm44.154 0H57.055v6.499h44.154zm-9.928-20.071a40.7 40.7 0 0 0 7.262 25.178l5.332-3.716a34.2 34.2 0 0 1-6.103-21.157zm9.594-24.385a40.7 40.7 0 0 0-9.594 24.385l6.491.305a34.2 34.2 0 0 1 8.062-20.49zM123.347 87.9a40.7 40.7 0 0 0-22.472 13.479l4.959 4.2a34.2 34.2 0 0 1 18.883-11.326zm26.031 3.018a40.7 40.7 0 0 0-26.031-3.018l1.37 6.353a34.2 34.2 0 0 1 21.873 2.535zm-4.643-22.065v25h6.498v-25zm-25.792-24.446 26.743 26.744 4.596-4.596-26.744-26.743zM68.088 59.415a5.89 5.89 0 0 0-5.889 5.889h6.499a.61.61 0 0 1-.61.61zm35.791 0h-35.79v6.498h35.79zm5.889 5.889a5.89 5.89 0 0 0-5.889-5.89v6.5a.61.61 0 0 1-.61-.61zm-5.889 5.89a5.89 5.89 0 0 0 5.889-5.89h-6.499a.61.61 0 0 1 .61-.61zm-35.79 0h35.79v-6.5h-35.79zm-5.89-5.89a5.89 5.89 0 0 0 5.89 5.89v-6.5a.61.61 0 0 1 .609.61zm6.499 14.417a.61.61 0 0 1-.61.61v-6.5a5.89 5.89 0 0 0-5.889 5.89zm-.61-.61a.61.61 0 0 1 .61.61h-6.499a5.89 5.89 0 0 0 5.89 5.89zm22.366 0H68.088v6.5h22.366zm-.61.61a.61.61 0 0 1 .61-.61v6.5a5.89 5.89 0 0 0 5.89-5.89zm.61.61a.61.61 0 0 1-.61-.61h6.5a5.89 5.89 0 0 0-5.89-5.89zm-22.366 0h22.366v-6.5H68.088z"/><path fill="#fff" d="M125.779 119.712c0 4.135 3.365 7.5 7.5 7.5s7.5-3.365 7.5-7.5-3.365-7.5-7.5-7.5-7.5 3.365-7.5 7.5m20.833 24.167h1.667v-1.667c0-6.432-5.235-11.667-11.667-11.667h-6.666c-6.434 0-11.667 5.235-11.667 11.667v1.667z"/><defs><linearGradient id="a" x1="92.572" x2="-10.674" y1="-154.722" y2="202.339" gradientUnits="userSpaceOnUse"><stop offset=".233" stop-color="#ff9c27"/><stop offset="1" stop-color="#fd48ce"/></linearGradient><linearGradient id="b" x1="99.845" x2="99.845" y1="42.109" y2="149.084" gradientUnits="userSpaceOnUse"><stop stop-color="#fff"/><stop offset="1" stop-color="#fff" stop-opacity=".55"/></linearGradient></defs></svg>
